X: 5680
T: Byrne's
R: hornpipe
M: 4/4
K: Dmajor
|:F2 FG AF Df|dA (3Bcd ecAg|fege fded|cBcd ecAG|
F2 FG AF Df|dA (3Bcd ecAg|fege fded|Addc d2:|
|:cd|eA (3AAA efge|afde bgeg|afdf geaf|gfed ecAG|
F2 FG AF Df|dA (3Bcd ecAg|fege fded|Addc d2:|

